Bloom-Colors/scalable/actions/tool-brush-symbolic.svg

<svg width="16" height="16" version="1.1" xmlns="http://www.w3.org/2000/svg">
<path d="m8 1c-1 0-1 1-1 1v4s-2 0-2 1v2h7v-2c0-1-2-1-2-1v-4s0-1-1-1zm-3 9c0 2.761-0.8954 5-2 5h7c1.105 0 2-2.239 2-5z" fill="#666"/>
</svg>

<svg xmlns="http://www.w3.org/2000/svg" width="16" height="16" version="1.1">
 <path style="fill:#444444" d="M 8,1 C 7,1 7,2 7,2 V 6 C 7,6 5,6 5,7 V 9 H 12 V 7 C 12,6 10,6 10,6 V 2 C 10,2 10,1 9,1 Z M 5,10 C 5,12.761 4.1046,15 3,15 H 10 C 11.105,15 12,12.761 12,10 Z"/>
</svg>
